icon-themes/breeze_svg/cmd/sc_togglelegend.svg

<svg viewBox="0 0 16 16" xmlns="http://www.w3.org/2000/svg"><path d="m3 2v10h-1v1h1v1h1v-1h10v-1h-10v-10z" fill="#4d4d4d"/><path d="m5 4v6h8v-6zm1 1h6v4h-6z" fill="#1d99f3"/></svg>

<svg xmlns="http://www.w3.org/2000/svg" viewBox="0 0 16 16">
 <path 
     style="fill:#4d4d4d" 
     d="M 3 2 L 3 12 L 2 12 L 2 13 L 3 13 L 3 14 L 4 14 L 4 13 L 14 13 L 14 12 L 4 12 L 4 2 L 3 2 z "
     />
 <path 
     style="fill:#1d99f3" 
     d="M 5 4 L 5 10 L 13 10 L 13 4 L 5 4 z M 6 5 L 12 5 L 12 9 L 6 9 L 6 5 z "
     />
 </svg>
